X: 8
T:Jota Popular
M:3/4
L:1/8
Q:200
C:Trad.
R:Jota
A:Galicia
K:D
DF DF | AF DF DF | AF DF DF | !
AF DF DF | E2 CE CE | GE CE CE | !
GE CE CE | AB AGFE |1 D2 {A }
:|2 
D6- | D2 E2 D2 |: C4 D2 | 
E4 G2 | F3 E D2-| D2 F2 E2 | 
D4 E2 | F4 A2 | G3 F E2- | 
E2{d} E2"     3 veces" D2 :| C4 D2 | E4 G2 | 
F3 E D2- | D6- | D2{A} 
||

